img/elem/ElemSphericalInterface24.svg

<svg height="24" width="24" xmlns="http://www.w3.org/2000/svg" xmlns:xlink="http://www.w3.org/1999/xlink">
  <linearGradient id="a" gradientTransform="scale(.49999998 .99999996)" gradientUnits="userSpaceOnUse" spreadMethod="pad" x1="12" x2="12" y1="0" y2="24">
    <stop offset="0" stop-color="#e4ffdb"/>
    <stop offset="1" stop-color="#99fdc8"/>
  </linearGradient>
  <linearGradient id="b" gradientTransform="matrix(.49999998 0 0 .99999996 12 -24)" gradientUnits="userSpaceOnUse" spreadMethod="pad" x1="12" x2="12" y1="0" y2="24">
    <stop offset="0" stop-color="#dbf6ff"/>
    <stop offset="1" stop-color="#7ddcfd"/>
  </linearGradient>
  <path d="m12-24h12v24h-12c-3.7246392-8.1201497-4.6601012-16.150326 0-24z" fill="url(#b)" transform="scale(1 -1)"/>
  <path d="m0 0h12c-3.6851494 8.0658062-3.9067384 16.069763 0 24h-12z" fill="url(#a)"/>
  <g fill="none" stroke-linecap="round">
    <path d="m22.875 6.1875-5-5m3 6-5-5" stroke="#00b4ff"/>
    <path d="m1.25 7.5 5-5m-3 6 5-5" stroke="#00c8aa"/>
    <path d="m1.8771186 20.980932 4.1355932-4.237288m-2.1355932 5.237288 3.6271186-3.830508" stroke="#00c8aa"/>
    <path d="m22.5 21.9375-2.711864-2.966102m.711864 3.966102-3.016949-3.169492" stroke="#00b4ff"/>
    <path d="m17.49032 8.53871 4 3.948789-4.031855 4.012501" stroke="#f00" stroke-linejoin="round" stroke-width="3"/>
    <path d="m12.5 24c-4.8085515-7.717144-4.4081883-15.7406948 0-24" stroke="#00b4ff"/>
    <path d="m2.414357 12.495543h19.024757" stroke="#f00" stroke-width="3"/>
  </g>
</svg>

<?xml version="1.0" encoding="UTF-8" standalone="no"?>
<svg
   xmlns:dc="http://purl.org/dc/elements/1.1/"
   xmlns:cc="http://creativecommons.org/ns#"
   xmlns:rdf="http://www.w3.org/1999/02/22-rdf-syntax-ns#"
   xmlns:svg="http://www.w3.org/2000/svg"
   xmlns="http://www.w3.org/2000/svg"
   xmlns:xlink="http://www.w3.org/1999/xlink"
   width="24"
   height="24"
   id="svg2"
   version="1.0">
  <defs
     id="defs4">
    <linearGradient
       id="linearGradient4242">
      <stop
         id="stop4244"
         offset="0"
         style="stop-color:#e4ffdb;stop-opacity:1" />
      <stop
         id="stop4246"
         offset="1"
         style="stop-color:#99fdc8;stop-opacity:1" />
    </linearGradient>
    <linearGradient
       id="linearGradient3261">
      <stop
         style="stop-color:#dbf6ff;stop-opacity:1;"
         offset="0"
         id="stop3263" />
      <stop
         style="stop-color:#7ddcfd;stop-opacity:1;"
         offset="1"
         id="stop3265" />
    </linearGradient>
    <linearGradient
       xlink:href="#linearGradient4242"
       id="linearGradient3267"
       x1="12"
       y1="0"
       x2="12"
       y2="24"
       gradientUnits="userSpaceOnUse"
       spreadMethod="pad"
       gradientTransform="scale(0.49999998,0.99999996)" />
    <linearGradient
       gradientTransform="matrix(1,0,0,1.0222222,16.977439,9.7333331)"
       gradientUnits="userSpaceOnUse"
       y2="23"
       x2="4.8921361"
       y1="1.0419451"
       x1="15.913273"
       id="linearGradient9130"
       xlink:href="#linearGradient3261" />
    <linearGradient
       xlink:href="#linearGradient3261"
       id="linearGradient4240"
       gradientUnits="userSpaceOnUse"
       gradientTransform="matrix(0.49999998,0,0,0.99999996,12,-24)"
       spreadMethod="pad"
       x1="12"
       y1="0"
       x2="12"
       y2="24" />
  </defs>
  <metadata
     id="metadata7">
    <rdf:RDF>
      <cc:Work
         rdf:about="">
        <dc:format>image/svg+xml</dc:format>
        <dc:type
           rdf:resource="http://purl.org/dc/dcmitype/StillImage" />
        <dc:title></dc:title>
      </cc:Work>
    </rdf:RDF>
  </metadata>
  <path
     id="rect4238"
     d="m 12,-24 12,0 0,24 -12,0 C 8.2753608,-8.1201497 7.3398988,-16.150326 12,-24 Z"
     style="opacity:1;fill:url(#linearGradient4240);fill-opacity:1;fill-rule:nonzero;stroke:none;stroke-width:0.95999998;stroke-linecap:round;stroke-linejoin:miter;stroke-miterlimit:4;stroke-dasharray:none;stroke-opacity:1"
     transform="scale(1,-1)" />
  <path
     id="rect3213"
     d="M 0,0 12,0 C 8.3148506,8.0658062 8.0932616,16.069763 12,24 L 0,24 Z"
     style="opacity:1;fill:url(#linearGradient3267);fill-opacity:1;fill-rule:nonzero;stroke:none;stroke-width:0.95999998;stroke-linecap:round;stroke-linejoin:miter;stroke-miterlimit:4;stroke-dasharray:none;stroke-opacity:1" />
  <path
     d="m 22.875,6.1875 -5,-5 0,0 m 3,6 -5,-5"
     style="fill:none;fill-rule:evenodd;stroke:#00b4ff;stroke-width:1px;stroke-linecap:round;stroke-linejoin:miter;stroke-opacity:1"
     id="path3248" />
  <path
     id="path3253"
     style="fill:none;fill-rule:evenodd;stroke:#00c8aa;stroke-width:1px;stroke-linecap:round;stroke-linejoin:miter;stroke-opacity:1"
     d="m 1.25,7.5 5,-5 0,0 m -3,6 5,-5" />
  <path
     d="M 1.8771186,20.980932 6.0127118,16.743644 M 3.8771186,21.980932 7.5042372,18.150424"
     style="fill:none;fill-rule:evenodd;stroke:#00c8aa;stroke-width:1px;stroke-linecap:round;stroke-linejoin:miter;stroke-opacity:1"
     id="path3255" />
  <path
     id="path3257"
     style="fill:none;fill-rule:evenodd;stroke:#00b4ff;stroke-width:1px;stroke-linecap:round;stroke-linejoin:miter;stroke-opacity:1"
     d="M 22.5,21.9375 19.788136,18.971398 M 20.5,22.9375 17.483051,19.768008" />
  <path
     id="path14040"
     d="m 17.49032,8.53871 4,3.948789 L 17.458465,16.5"
     style="fill:none;fill-rule:evenodd;stroke:#ff0000;stroke-width:3;stroke-linecap:round;stroke-linejoin:round;stroke-miterlimit:4;stroke-dasharray:none;stroke-opacity:1" />
  <path
     id="path4236"
     d="M 12.5,24 C 7.6914485,16.282856 8.0918117,8.2593052 12.5,0"
     style="fill:none;fill-rule:evenodd;stroke:#00b4ff;stroke-width:1px;stroke-linecap:round;stroke-linejoin:miter;stroke-opacity:1" />
  <path
     id="path13067"
     d="m 2.414357,12.495543 19.024757,0"
     style="fill:none;fill-rule:evenodd;stroke:#ff0000;stroke-width:3;stroke-linecap:round;stroke-linejoin:miter;stroke-miterlimit:4;stroke-dasharray:none;stroke-opacity:1;marker-end:none" />
</svg>
